packages/icons/svg/Fill/done.svg

<svg fill="none" height="24" viewBox="0 0 24 24" width="24" xmlns="http://www.w3.org/2000/svg"><path d="m9.7071 15.493c-.39052.3905-1.02369.3905-1.41421 0l-2.7929-2.7929c-.3866-.3866-1.0134-.3866-1.4 0-.3866.3866-.3866 1.0134 0 1.4l4.1929 4.1929c.39052.3905 1.02369.3905 1.41421 0l10.5929-10.5929c.3866-.3866.3866-1.0134 0-1.4-.3866-.3866-1.0134-.3866-1.4 0z" fill="#6b7280"/></svg>

<svg width="24" height="24" viewBox="0 0 24 24" fill="none" xmlns="http://www.w3.org/2000/svg">
<path d="M9.70701 15.4925C9.31648 15.883 8.68332 15.883 8.2928 15.4925L5.4999 12.6996C5.1133 12.313 4.4865 12.313 4.0999 12.6996V12.6996C3.7133 13.0862 3.7133 13.713 4.0999 14.0996L8.2928 18.2925C8.68332 18.683 9.31648 18.683 9.70701 18.2925L20.2999 7.69961C20.6865 7.31301 20.6865 6.68621 20.2999 6.29961V6.29961C19.9133 5.91301 19.2865 5.91301 18.8999 6.29961L9.70701 15.4925Z" fill="#000000"/>
</svg>
